X:102
%%etbk:tnset id:36,pos:2,rep:3x,ant:
%%etbk:wsite http://www.thesession.org/tunes/display/1428
%%etbk:color #e6ffe6
%%etbk:pldat 2016-04-23T16:59,2016-04-20T16:39,2015-08-24T19:05,2015-02-06T18:05,2015-01-31T17:04,2014-05-20T17:20,2014-04-01T17:48,2014-03-22T16:12,2014-02-18T17:05,2014-02-14T17:19,2014-02-09T13:04,2013-12-09T18:56,2013-11-06T17:36,2013-10-23T18:51,2013-10-21T17:54,2013-10-20T14:05,2013-09-12T18:12,2013-08-29T16:00,2013-08-26T18:13,2013-05-20T15:25,2013-05-05T14:08,2013-05-01T16:11
T: Humours Of Ballyconnell, The
Z: Piano Box Version by Martin Fleischmann
H: Created 2013-02-19 /  Last Modified 2016-04-20
M: 4/4
L: 1/8
R: reel
K: Dmaj
| "D"!3!de!5!fe !3!d!2!B!1!A!2!F | !5!B!2!F!4!AF "A"!1!EFFE | "D"!3!d2!5!fe !3!d!2!B!1!A!2!F | !5!B!2!F!4!A!2!F !1!D4:|
|: "D"!3!(3FE!1!D!5!AD !3!FD!5!AD | "A"!3!G!1!E!5!BE !3!GE!5!BE | "D"!2!FD!4!AD !5!BD!4!A!2!F | "A"!3!GBAF "D"!1!D4:|
|: "D"!4!a2ba !4!a!1!d!4!a!2!f | "A"!3!g!2!e!1!c!2!e !3!g!2!e!1!c!2!e | "D"!4!a2aa !5!b2!4!a!3!g |1 "A"!2!fa!1!eg "D"!2!f!1!dd2:|2 "A"!2!fa!1!ef "D"!1!d4:|


